X: 3
T:Felefeber
M:3/4
L:1/8
C:Annbjorg Lien
R:Vals
O:Swedish
K:A
|:E AB|c3Bc2|A4E2|F3AF2|E4E2|FE FG Ac|B3E AB|c3BA2|B4AB|c3Bc2|A4E2|F3AF2
|E4E2|FE FG Ac|B3E AG|1A6-|A3:|2A6-|A2G2A2||:B4B2|B3cd2|c3B cB|A3A ce|
f3a fe|c3B(3ABc|"~"{c}-B6|B3E AB|c3Bc2|A4E2|F3AF2|E4E2|FE FG Ac|B3E AG|1
A6-
|A2G2A2:|2A6-|A6||
